X:1
T: Bonny Breast Knot
N:
C:
S:
A:
O:
R:
M:4/4
K:G
I:speed 128
%W: A1                                                                      A2
% voice 1 (1 lines, 44 notes)
K:G
M:4/4
L:1/16
G4 B3 G F4 A4 |D4 e4 d3 c B3 A |G4 B3 G F4 A4 |d3 c c3 A F4 D4 |G4 B3 G F4 A4 |D4 e4 d3 c B3 A |G4 B3 G F4 A4 |d3 c c3 A F4 D4 |
%W: B1                                                                      B2
% voice 1 (1 lines, 43 notes)
K:D
f4 d4 f4 a4 |e3 d c3 d e3 f g4 |f3 e d3 e f3 g a4 |a3 g f3 e A8 |f4 d4 f4 a4 |c3 d e3 f g3 g a4 |f4 f4 e3 f g3 e |d4 f4 d8 ||
